_inc/systems/logos/auto-retroachievements.svg

<?xml version="1.0" encoding="utf-8"?>
<svg preserveAspectRatio="none" viewBox="0 0 200 40" xmlns="http://www.w3.org/2000/svg">
  <path d="M 52.022 12.925 L 53.876 18.768 L 48.006 18.768 L 46.713 13.543 L 45.562 13.543 L 44.663 18.768 L 39.326 18.768 L 42.416 1.212 L 50.843 1.212 C 54.045 1.212 55.646 2.645 55.646 5.51 C 55.646 6.69 55.468 7.813 55.112 8.881 C 54.457 10.903 53.427 12.251 52.022 12.925 Z M 48.006 5.706 L 46.938 5.706 L 46.32 9.218 L 47.556 9.218 C 48.193 9.218 48.673 9.149 48.998 9.012 C 49.329 8.868 49.553 8.466 49.672 7.804 C 49.797 7.136 49.86 6.727 49.86 6.577 C 49.86 6.203 49.716 5.962 49.429 5.856 C 49.136 5.756 48.661 5.706 48.006 5.706 Z" style="white-space: pre; fill: rgb(255, 255, 255);"/>
  <path d="M 66.582 9.845 L 65.974 13.244 L 61.526 13.244 L 61.217 15.023 L 66.676 15.023 L 66.021 18.768 L 56.114 18.768 L 58.689 4.133 L 68.474 4.133 L 67.257 7.879 L 62.463 7.879 L 62.135 9.845 L 66.582 9.845 Z M 80.927 4.133 L 80.253 7.879 L 77.022 7.879 L 75.122 18.768 L 70.674 18.768 L 72.575 7.879 L 69.363 7.879 L 70.047 4.133 L 80.927 4.133 Z M 90.805 13.899 L 92.35 18.768 L 87.463 18.768 L 86.386 14.414 L 85.421 14.414 L 84.672 18.768 L 80.225 18.768 L 82.8 4.133 L 89.822 4.133 C 92.493 4.133 93.83 5.329 93.83 7.719 C 93.83 8.7 93.68 9.636 93.38 10.528 C 92.837 12.214 91.978 13.337 90.805 13.899 Z M 87.463 7.879 L 86.573 7.879 L 86.058 10.809 L 87.088 10.809 C 87.619 10.809 88.018 10.75 88.287 10.631 C 88.561 10.513 88.748 10.179 88.848 9.63 C 88.954 9.074 89.007 8.734 89.007 8.609 C 89.007 8.297 88.886 8.097 88.642 8.01 C 88.399 7.923 88.006 7.879 87.463 7.879 Z M 100.08 9.03 L 99.003 15.116 L 100.847 15.116 C 101.453 15.116 101.905 15.042 102.205 14.892 C 102.505 14.742 102.701 14.402 102.795 13.871 L 103.872 7.785 L 101.99 7.785 C 101.403 7.785 100.96 7.86 100.66 8.01 C 100.367 8.16 100.173 8.499 100.08 9.03 Z M 102.767 3.787 C 104.752 3.787 106.166 4.174 107.008 4.948 C 107.851 5.716 108.272 6.905 108.272 8.515 C 108.272 10.119 108.017 11.802 107.505 13.562 C 106.999 15.316 106.197 16.68 105.098 17.654 C 104 18.634 102.392 19.124 100.276 19.124 C 98.16 19.124 96.681 18.737 95.838 17.963 C 94.995 17.189 94.574 15.999 94.574 14.396 C 94.574 13.628 94.684 12.616 94.902 11.362 C 95.12 10.101 95.41 9.014 95.772 8.103 C 96.128 7.192 96.612 6.399 97.224 5.725 C 98.391 4.433 100.239 3.787 102.767 3.787 Z" style="white-space: pre; fill: rgb(255, 255, 255);"/>
  <path d="M 44.167 35.65 L 43.071 38.431 L 37.453 38.431 L 44.841 20.875 L 53.099 20.875 L 54.335 38.431 L 48.689 38.431 L 48.577 35.65 L 44.167 35.65 Z M 48.155 26.268 L 47.875 26.268 L 45.908 31.184 L 48.155 31.184 L 48.155 26.268 Z" style="white-space: pre; fill: rgb(255, 255, 255);"/>
  <path d="M 66.217 34.236 L 65.843 38.169 C 64.844 38.581 63.58 38.787 62.051 38.787 C 60.084 38.787 58.677 38.403 57.828 37.635 C 56.978 36.867 56.554 35.688 56.554 34.096 C 56.554 33.428 56.664 32.439 56.882 31.128 C 57.35 28.443 58.155 26.493 59.298 25.276 C 60.447 24.058 62.263 23.45 64.747 23.45 C 65.321 23.45 65.98 23.509 66.723 23.628 C 67.465 23.74 68.008 23.883 68.352 24.058 L 67.041 27.635 C 66.117 27.417 65.253 27.308 64.448 27.308 C 63.649 27.308 63.078 27.385 62.734 27.542 C 62.39 27.698 62.179 28.01 62.097 28.478 L 61.021 34.611 C 61.582 34.735 62.16 34.798 62.753 34.798 C 64.02 34.798 65.175 34.611 66.217 34.236 Z M 80.103 38.431 L 75.655 38.431 L 76.536 33.253 L 73.193 33.253 L 72.303 38.431 L 67.856 38.431 L 70.431 23.796 L 74.878 23.796 L 73.97 28.974 L 77.313 28.974 L 78.23 23.796 L 82.678 23.796 L 80.103 38.431 Z M 87.331 38.431 L 82.884 38.431 L 85.459 23.796 L 89.906 23.796 L 87.331 38.431 Z M 100.562 29.508 L 99.953 32.907 L 95.506 32.907 L 95.197 34.686 L 100.655 34.686 L 100 38.431 L 90.094 38.431 L 92.669 23.796 L 102.453 23.796 L 101.236 27.542 L 96.442 27.542 L 96.114 29.508 L 100.562 29.508 Z M 108.867 33.094 L 112.406 23.796 L 117.107 23.796 L 111.096 38.431 L 104.588 38.431 L 103.717 23.796 L 108.661 23.796 L 108.661 33.094 L 108.867 33.094 Z M 126.592 29.508 L 125.983 32.907 L 121.536 32.907 L 121.227 34.686 L 126.685 34.686 L 126.03 38.431 L 116.124 38.431 L 118.699 23.796 L 128.483 23.796 L 127.266 27.542 L 122.472 27.542 L 122.144 29.508 L 126.592 29.508 Z M 134.27 31.334 L 132.743 38.431 L 128.109 38.431 L 131.526 23.796 L 137.331 23.796 L 137.753 31.24 L 137.921 31.24 L 140.964 23.796 L 146.77 23.796 L 145.028 38.431 L 140.375 38.431 L 141.358 31.334 L 141.199 31.334 L 138.268 38.431 L 134.878 38.431 L 134.382 31.334 L 134.27 31.334 Z M 157.982 29.508 L 157.374 32.907 L 152.926 32.907 L 152.617 34.686 L 158.076 34.686 L 157.42 38.431 L 147.514 38.431 L 150.089 23.796 L 159.874 23.796 L 158.656 27.542 L 153.862 27.542 L 153.535 29.508 L 157.982 29.508 Z M 172.28 38.431 L 168.095 38.431 L 165.707 33.234 C 165.644 33.122 165.613 32.969 165.613 32.776 C 165.613 32.582 165.629 32.361 165.66 32.111 L 165.473 32.111 L 164.368 38.431 L 159.92 38.431 L 162.495 23.796 L 166.69 23.796 L 169.078 28.993 C 169.122 29.105 169.143 29.258 169.143 29.452 C 169.143 29.646 169.127 29.866 169.096 30.116 L 169.284 30.116 L 170.407 23.796 L 174.855 23.796 L 172.28 38.431 Z M 187.659 23.796 L 186.985 27.542 L 183.755 27.542 L 181.854 38.431 L 177.406 38.431 L 179.307 27.542 L 176.096 27.542 L 176.779 23.796 L 187.659 23.796 Z M 186.536 38.169 L 187.846 34.311 C 189.157 34.667 190.359 34.845 191.451 34.845 C 192.544 34.845 193.427 34.798 194.101 34.705 L 194.288 33.534 L 192.341 33.347 C 190.861 33.209 189.813 32.876 189.195 32.345 C 188.577 31.814 188.268 31.065 188.268 30.098 C 188.268 29.674 188.315 29.205 188.408 28.693 C 188.771 26.696 189.422 25.322 190.365 24.573 C 191.308 23.824 192.772 23.45 194.757 23.45 C 196.735 23.45 198.483 23.644 200 24.03 L 198.783 27.776 C 197.422 27.544 196.33 27.429 195.506 27.429 C 194.675 27.429 193.973 27.467 193.399 27.542 L 193.212 28.693 L 194.775 28.852 C 196.367 29.028 197.5 29.408 198.174 29.995 C 198.842 30.575 199.176 31.359 199.176 32.345 C 199.176 33.344 198.958 34.374 198.521 35.435 C 198.302 35.978 198.065 36.434 197.809 36.802 C 197.553 37.17 197.226 37.483 196.826 37.738 C 196.426 37.994 196.065 38.19 195.74 38.328 C 195.409 38.459 194.993 38.556 194.494 38.618 C 193.764 38.731 192.868 38.787 191.807 38.787 C 189.866 38.787 188.109 38.581 186.536 38.169 Z" style="white-space: pre; fill: rgb(255, 255, 255);"/>
  <path d="M 31.11 9.004 L 25.25 9.004 L 25.25 6.749 C 25.25 5.999 24.646 5.396 23.897 5.396 L 8.566 5.396 C 7.816 5.396 7.214 5.999 7.214 6.749 L 7.214 9.004 L 1.352 9.004 C 0.603 9.004 0 9.606 0 10.356 L 0 13.513 C 0 15.525 1.268 17.593 3.489 19.189 C 5.264 20.468 7.422 21.279 9.688 21.538 C 11.458 24.475 13.526 25.687 13.526 25.687 L 13.526 29.744 L 10.821 29.744 C 8.831 29.744 7.214 30.911 7.214 32.9 L 7.214 33.577 C 7.214 33.949 7.518 34.253 7.89 34.253 L 24.573 34.253 C 24.945 34.253 25.25 33.949 25.25 33.577 L 25.25 32.9 C 25.25 30.911 23.632 29.744 21.642 29.744 L 18.937 29.744 L 18.937 25.687 C 18.937 25.687 21.006 24.475 22.775 21.538 C 25.047 21.279 27.205 20.468 28.975 19.189 C 31.19 17.593 32.463 15.525 32.463 13.513 L 32.463 10.356 C 32.463 9.606 31.86 9.004 31.11 9.004 Z M 5.596 16.263 C 4.222 15.271 3.607 14.166 3.607 13.513 L 3.607 12.611 L 7.225 12.611 C 7.282 14.448 7.551 16.06 7.947 17.469 C 7.096 17.176 6.301 16.77 5.596 16.263 Z M 28.857 13.513 C 28.857 14.42 27.859 15.547 26.866 16.263 C 26.163 16.77 25.361 17.176 24.511 17.469 C 24.905 16.06 25.176 14.448 25.232 12.611 L 28.857 12.611 L 28.857 13.513 Z" style="fill: rgb(255, 255, 255);"/>
</svg>

<svg xmlns="http://www.w3.org/2000/svg" preserveAspectRatio="none" viewBox="0 0 200 40"><path d="m52.02 12.93 1.86 5.84H48l-1.3-5.23h-1.15l-.9 5.23h-5.33l3.1-17.57h8.42q4.8 0 4.8 4.3 0 1.77-.53 3.37-.98 3.03-3.09 4.05M48.01 5.7h-1.07l-.62 3.5h1.24q.95 0 1.44-.2.5-.21.67-1.2.2-1 .19-1.23 0-.57-.43-.72-.45-.15-1.42-.15m18.57 4.15-.6 3.4h-4.45l-.31 1.77h5.46l-.66 3.75h-9.9l2.57-14.64h9.78l-1.21 3.75h-4.8l-.33 1.97zm14.35-5.72-.68 3.75h-3.23l-1.9 10.89h-4.45l1.9-10.9h-3.2l.68-3.74zm9.88 9.77 1.54 4.87h-4.89L86.4 14.4h-.97l-.75 4.36h-4.45L82.8 4.13h7.02q4 0 4.01 3.59 0 1.47-.45 2.8-.81 2.55-2.57 3.38m-3.35-6.02h-.89l-.51 2.93h1.03q.8 0 1.2-.18t.56-1q.16-.84.16-1.02 0-.47-.37-.6a4 4 0 0 0-1.18-.13m12.62 1.15L99 15.12h1.85q.9 0 1.36-.23.45-.23.59-1.02l1.07-6.08H102q-.88 0-1.33.22t-.58 1.02m2.69-5.24q2.97 0 4.24 1.16 1.26 1.15 1.26 3.57 0 2.4-.77 5.04a8.4 8.4 0 0 1-2.4 4.1q-1.64 1.46-4.82 1.46t-4.44-1.16-1.27-3.56q0-1.15.33-3.04t.87-3.26 1.45-2.37q1.75-1.95 5.55-1.94M44.17 35.65l-1.1 2.78h-5.62l7.4-17.55h8.25l1.23 17.55H48.7l-.11-2.78zm3.98-9.38h-.27l-1.97 4.91h2.25zm18.07 7.97-.38 3.93q-1.5.62-3.79.62-2.95 0-4.22-1.16-1.28-1.14-1.28-3.53 0-1 .33-2.97.7-4.04 2.42-5.85 1.72-1.83 5.45-1.83.86 0 1.97.18a6 6 0 0 1 1.63.43l-1.3 3.58q-1.4-.33-2.6-.33t-1.72.23q-.51.24-.63.94l-1.08 6.13a10 10 0 0 0 5.2-.37m13.88 4.2h-4.44l.88-5.19h-3.35l-.89 5.18h-4.44l2.57-14.63h4.45l-.91 5.17h3.34l.92-5.17h4.45zm7.23 0h-4.45l2.58-14.64h4.45zm13.23-8.93-.6 3.4H95.5l-.31 1.78h5.45l-.65 3.74h-9.9l2.57-14.63h9.78l-1.21 3.74h-4.8l-.33 1.97zm8.3 3.58 3.55-9.3h4.7l-6.01 14.64h-6.51l-.87-14.63h4.94v9.3zm17.73-3.58-.6 3.4h-4.45l-.31 1.78h5.45l-.65 3.74h-9.9l2.57-14.63h9.78l-1.21 3.74h-4.8l-.33 1.97zm7.68 1.82-1.53 7.1h-4.63l3.42-14.63h5.8l.42 7.44h.17l3.04-7.44h5.81l-1.74 14.63h-4.66l.99-7.1h-.16l-2.93 7.1h-3.4l-.49-7.1zm23.71-1.82-.6 3.4h-4.45l-.31 1.78h5.46l-.66 3.74h-9.9l2.57-14.63h9.78l-1.21 3.74h-4.8l-.33 1.97zm14.3 8.92h-4.19l-2.38-5.2a1 1 0 0 1-.1-.45q0-.3.05-.67h-.19l-1.1 6.32h-4.45l2.58-14.63h4.19l2.39 5.2q.06.16.06.45t-.04.67h.18l1.13-6.32h4.44zm15.38-14.63-.67 3.74h-3.24l-1.9 10.9h-4.44l1.9-10.9h-3.21l.68-3.74zm-1.12 14.37 1.3-3.86q1.98.53 3.61.53 1.65 0 2.65-.14l.19-1.17-1.95-.18q-2.22-.2-3.15-1a2.8 2.8 0 0 1-.92-2.25q0-.65.14-1.4.54-3 1.96-4.13 1.4-1.12 4.39-1.12 2.97 0 5.24.58l-1.22 3.75a17 17 0 0 0-5.38-.23l-.19 1.14 1.56.16q2.4.27 3.4 1.14 1 .88 1 2.36 0 1.5-.65 3.09-.33.81-.71 1.36-.39.55-.98.94-.6.38-1.09.59t-1.25.29q-1.1.17-2.68.17-2.91 0-5.27-.62" style="white-space:pre;fill:#fff"/><path d="M31.11 9h-5.86V6.75c0-.75-.6-1.35-1.35-1.35H8.57c-.75 0-1.36.6-1.36 1.35V9H1.35C.6 9 0 9.6 0 10.36v3.15c0 2.02 1.27 4.08 3.49 5.68a13 13 0 0 0 6.2 2.35 12.5 12.5 0 0 0 3.84 4.15v4.05h-2.7c-2 0-3.62 1.17-3.62 3.16v.68c0 .37.3.67.68.67h16.68c.38 0 .68-.3.68-.67v-.68c0-1.99-1.62-3.16-3.6-3.16h-2.71V25.7s2.07-1.21 3.83-4.15a13 13 0 0 0 6.2-2.35c2.22-1.6 3.5-3.67 3.5-5.68v-3.15c0-.75-.61-1.36-1.36-1.36M5.6 16.26c-1.38-.99-2-2.1-2-2.75v-.9h3.62c.06 1.84.33 3.45.73 4.86a9 9 0 0 1-2.35-1.2m23.26-2.75c0 .91-1 2.04-2 2.75q-1.06.77-2.35 1.2c.4-1.4.67-3.01.72-4.85h3.63z" style="fill:#fff"/></svg>
